X: 9634
T:Sailor on the Rock, The
M:C|
R:Reel
S:O'Neill's
K:D
dfed BAFB|AD (FED FAAB|dfed ~B3d|1 ABdf e2 dB:|2 ABdf e2 d>e|:\
fa {b}(3a^ga fedf|~g3a bgeg|~f3a fedB|1 \
ABdf efd>e:|2 ABdf e2 dB||
